X: 06086
T: SARAH GREENE'S JIG
C: Bob McQuillen 26 July 82
B: Bob's Note Book 6 #86
%R: jig
Z: 2021 John Chambers <jc:trillian.mit.edu>
M: 6/8
L: 1/8
K: D
|:FDF ABA | AFA d2B | Adf aba | f2f edf |\
| aba afd | BdB BAF | ABA d2f | afd e2d :|
|:dfa afe | def e2d | BAB dBd | ABA F2E |\
| DED DFA | BdB BAF | ABd fdB | AFE F2D :|
%%begintext align
%% The Miller Brothers have a cute
%% little cousin I just met who
%% likes to dance - I hope you like
%% this tune, Sarah!
%%endtext

%%sep 1 1 500

%%sep 1 1 500

